gama.ui.shared/icons_svg/dark/views/tabs/view.panel.svg

<?xml version="1.0" encoding="UTF-8" standalone="no"?>
<!DOCTYPE svg PUBLIC "-//W3C//DTD SVG 1.1//EN" "http://www.w3.org/Graphics/SVG/1.1/DTD/svg11.dtd">
<svg xmlns="http://www.w3.org/2000/svg" xmlns:dc="http://purl.org/dc/elements/1.1/" version="1.1" xmlns:xl="http://www.w3.org/1999/xlink" viewBox="-567.35776 -2973.7685 24.75 24.75" width="24.75" height="24.75">
  <defs/>
  <g id="SOURCES" fill="none" stroke="none" stroke-dasharray="none" fill-opacity="1" stroke-opacity="1">
    <title>SOURCES</title>
    <g id="SOURCES_Dark">
      <title>Dark</title>
      <g id="Group_12691">
        <g id="Graphic_11028">
          <path d="M -550.40476 -2958.2365 L -552.82676 -2959.3355 C -552.00776 -2959.9725 -551.48276 -2960.9735 -551.48276 -2962.0935 C -551.48276 -2964.0255 -553.05076 -2965.5935 -554.98276 -2965.5935 C -556.91476 -2965.5935 -558.48276 -2964.0255 -558.48276 -2962.0935 C -558.48276 -2960.9735 -557.95776 -2959.9725 -557.13876 -2959.3355 L -559.56076 -2958.2365 C -559.79176 -2958.1315 -559.99476 -2957.9775 -560.15576 -2957.7955 C -560.86976 -2958.8175 -561.28976 -2960.0565 -561.28976 -2961.4005 C -561.28276 -2964.8725 -558.46176 -2967.6935 -554.98276 -2967.6935 C -551.50376 -2967.6935 -548.68276 -2964.8725 -548.68276 -2961.3935 C -548.68276 -2960.0565 -549.10276 -2958.8105 -549.80976 -2957.7885 C -549.97076 -2957.9775 -550.17376 -2958.1245 -550.40476 -2958.2295 M -557.78276 -2962.0935 C -557.78276 -2963.6405 -556.52976 -2964.8935 -554.98276 -2964.8935 C -553.43576 -2964.8935 -552.18276 -2963.6405 -552.18276 -2962.0935 C -552.18276 -2960.5465 -553.43576 -2959.2935 -554.98276 -2959.2935 C -556.52976 -2959.2935 -557.78276 -2960.5465 -557.78276 -2962.0935 M -554.98276 -2955.0935 C -556.86576 -2955.0935 -558.55276 -2955.9195 -559.70776 -2957.2215 C -559.60276 -2957.3825 -559.44876 -2957.5155 -559.26676 -2957.5925 L -556.41076 -2958.8945 C -555.97676 -2958.6985 -555.49376 -2958.5935 -554.98276 -2958.5935 C -554.47176 -2958.5935 -553.98876 -2958.6985 -553.55476 -2958.8945 L -550.69876 -2957.5925 C -550.51676 -2957.5085 -550.36976 -2957.3825 -550.25776 -2957.2215 C -551.41276 -2955.9125 -553.09976 -2955.0935 -554.98276 -2955.0935 M -554.98276 -2968.3935 C -558.84676 -2968.3935 -561.98276 -2965.2575 -561.98276 -2961.3935 C -561.98276 -2957.5295 -558.84676 -2954.3935 -554.98276 -2954.3935 C -551.11876 -2954.3935 -547.98276 -2957.5295 -547.98276 -2961.3935 C -547.98276 -2965.2575 -551.11876 -2968.3935 -554.98276 -2968.3935" fill="#c0e0ff"/>
        </g>
        <g id="Graphic_12684"/>
      </g>
    </g>
  </g>
</svg>

<svg height="24.75" viewBox="-567.358 -2973.769 24.75 24.75" width="24.75" xmlns="http://www.w3.org/2000/svg"><path d="m-550.40476-2958.2365-2.422-1.099c.819-.637 1.344-1.638 1.344-2.758 0-1.932-1.568-3.5-3.5-3.5s-3.5 1.568-3.5 3.5c0 1.12.525 2.121 1.344 2.758l-2.422 1.099c-.231.105-.434.259-.595.441-.714-1.022-1.134-2.261-1.134-3.605.007-3.472 2.828-6.293 6.307-6.293s6.3 2.821 6.3 6.3c0 1.337-.42 2.583-1.127 3.605-.161-.189-.364-.336-.595-.441m-7.378-3.864c0-1.547 1.253-2.8 2.8-2.8s2.8 1.253 2.8 2.8-1.253 2.8-2.8 2.8-2.8-1.253-2.8-2.8m2.8 7c-1.883 0-3.57-.826-4.725-2.128.105-.161.259-.294.441-.371l2.856-1.302c.434.196.917.301 1.428.301s.994-.105 1.428-.301l2.856 1.302c.182.084.329.21.441.371-1.155 1.309-2.842 2.128-4.725 2.128m0-13.3c-3.864 0-7 3.136-7 7s3.136 7 7 7 7-3.136 7-7-3.136-7-7-7" fill="#c0e0ff"/></svg>
